components/Common/Svg/svgs/linkedIn.svg

<svg width="24" height="24" viewBox="0 0 24 24" fill="none" xmlns="http://www.w3.org/2000/svg">
<circle cx="12" cy="12" r="12" fill="#171717"/>
<path d="M9.0626 16.9737H6.6326V9.15367H9.0626V16.9737ZM7.8326 8.19367C7.0651 8.19367 6.56885 7.64992 6.56885 6.97742C6.56885 6.29117 7.0801 5.76367 7.86385 5.76367C8.6476 5.76367 9.1276 6.29117 9.1426 6.97742C9.1426 7.64992 8.6476 8.19367 7.8326 8.19367ZM17.9376 16.9737H15.5076V12.6399C15.5076 11.6312 15.1551 10.9462 14.2763 10.9462C13.6051 10.9462 13.2063 11.4099 13.0301 11.8562C12.9651 12.0149 12.9488 12.2399 12.9488 12.4637V16.9724H10.5176V11.6474C10.5176 10.6712 10.4863 9.85492 10.4538 9.15242H12.5651L12.6763 10.2387H12.7251C13.0451 9.72867 13.8288 8.97617 15.1401 8.97617C16.7388 8.97617 17.9376 10.0474 17.9376 12.3499V16.9737Z" fill="white"/>
</svg>

<svg xmlns="http://www.w3.org/2000/svg" width="24" height="24" fill="none">
  <circle cx="12" cy="12" r="12" fill="#171717" />
  <path fill="#fff" d="M9.063 16.974h-2.43v-7.82h2.43v7.82Zm-1.23-8.78c-.768 0-1.264-.544-1.264-1.217 0-.686.511-1.213 1.295-1.213.784 0 1.264.527 1.279 1.213 0 .673-.495 1.217-1.31 1.217Zm10.105 8.78h-2.43V12.64c0-1.009-.353-1.694-1.232-1.694-.67 0-1.07.464-1.246.91-.065.159-.081.384-.081.608v4.508h-2.431v-5.325c0-.976-.032-1.792-.064-2.495h2.111l.111 1.087h.05c.32-.51 1.103-1.263 2.414-1.263 1.599 0 2.798 1.071 2.798 3.374v4.624Z" />
</svg>
